X: 447
T: The Bumblebee in the Jug
B: jims roots
M:C|
L:1/8
Q: 1/4=100
K:D
V:1 
|:FE | "D"D2DF AFAd |"G"BGBd "A"cABc | "D"dcde "Bm"faed | "A"cABc dBAF |
"D"D2DF AFAd | "G"BGBd "A"cABc | "D"dcde "Bm"faed | "A"cABc "D"d2 :|
|: "D"{e}f2- | fafe fafe | fafe dBAF | "G"BABc BABc | BcBA "A"Bcde |
"D"fafe fafe | bafe dBAF | "G"BABc dcde | "A"fdec "D"d2 :|
% abcbook-tune_id 6298c245968021a7f578b113


% abcbook-boost 0
% abcbook-tablature 
% abcbook-transpose 
% abcbook-lastupdated 1654178373579
% abcbook-soundfonts 
% abcbook-repeats 1


